svg/fluentui-system-icons/ic_fluent_remote_16_regular.svg

<svg width="16" height="16" viewBox="0 0 16 16" fill="none" xmlns="http://www.w3.org/2000/svg">
<path d="M13.8536 2.85355C14.0488 2.65829 14.0488 2.34171 13.8536 2.14645C13.6583 1.95118 13.3417 1.95118 13.1464 2.14645L8.64645 6.64645C8.45118 6.84171 8.45118 7.15829 8.64645 7.35355L13.1464 11.8536C13.3417 12.0488 13.6583 12.0488 13.8536 11.8536C14.0488 11.6583 14.0488 11.3417 13.8536 11.1464L9.70711 7L13.8536 2.85355ZM2.85355 4.14645C2.65829 3.95118 2.34171 3.95118 2.14645 4.14645C1.95118 4.34171 1.95118 4.65829 2.14645 4.85355L6.29289 9L2.14645 13.1464C1.95118 13.3417 1.95118 13.6583 2.14645 13.8536C2.34171 14.0488 2.65829 14.0488 2.85355 13.8536L7.35355 9.35355C7.54882 9.15829 7.54882 8.84171 7.35355 8.64645L2.85355 4.14645Z" fill="#212121"/>
</svg>

<svg xmlns="http://www.w3.org/2000/svg" width="16" height="16"><path d="M13.854 2.854a.5.5 0 0 0-.708-.708l-4.5 4.5a.5.5 0 0 0 0 .708l4.5 4.5a.5.5 0 0 0 .708-.708L9.707 7l4.147-4.146Zm-11 1.292a.5.5 0 1 0-.708.708L6.293 9l-4.147 4.146a.5.5 0 0 0 .708.708l4.5-4.5a.5.5 0 0 0 0-.708l-4.5-4.5Z"/></svg>
